public/img/mango-markets-logo.svg

<svg fill="none" height="50" viewBox="0 0 212 50" width="212" xmlns="http://www.w3.org/2000/svg" xmlns:xlink="http://www.w3.org/1999/xlink"><linearGradient id="a" gradientUnits="userSpaceOnUse" x1="0" x2="39.2742" y1="28.3881" y2="28.3881"><stop offset="0" stop-color="#f84638"/><stop offset=".5" stop-color="#ff9c24"/><stop offset="1" stop-color="#a6cd03"/></linearGradient><g fill="#e5e3ec"><path d="m84.8619 33.3723-13.1954-23.98363h-4.5471v31.20543h5.3495v-19.4811l10.8773 19.4811h2.6748l11.0556-19.704v19.704h5.3494v-31.20543h-4.4578z"/><path d="m117.652 17.4129c-5.885 0-9.54 3.076-10.432 7.3556h5.26c.758-1.5603 2.229-2.7193 5.216-2.7193 3.567 0 5.439 1.8723 5.439 4.5916v.2675h-6.776c-6.865 0-10.343 3.1651-10.343 7.311 0 3.8338 3.255 6.9989 9.139 6.9989 4.503 0 7.044-1.9169 8.158-3.1651h.223l.892 2.541h3.967v-13.4629c0-5.7507-3.834-9.7183-10.743-9.7183zm-1.65 19.4366c-3.432 0-4.77-1.3374-4.77-3.0314 0-1.7832 1.427-3.1206 5.305-3.1206h6.598v1.0699c0 2.7194-2.363 5.0821-7.133 5.0821z"/><path d="m137.626 40.5941v-11.6352c0-3.9675 2.63-6.6868 6.643-6.6868 3.922 0 6.553 2.7193 6.553 6.6868v11.6352h5.215v-12.4376c0-6.5085-4.413-10.7436-10.743-10.7436-4.28 0-6.821 1.9169-7.802 3.1206h-.222l-.937-2.4965h-3.923v22.5571z"/><path d="m171.224 49.0642c7.712 0 12.259-4.1905 12.259-10.6099v-20.4173h-3.967l-.936 2.4965h-.223c-.937-.9808-3.478-3.1206-7.98-3.1206-6.865 0-11.769 4.8592-11.769 11.1448 0 6.3303 4.859 11.2786 11.814 11.2786 4.145 0 6.954-2.0507 7.578-2.9868h.223v1.7385c0 3.7447-2.719 5.8399-6.999 5.8399-3.254 0-5.26-.9361-6.107-2.4518h-5.394c.668 2.8976 3.923 7.0881 11.501 7.0881zm-.178-13.8642c-4.191 0-7.178-2.8085-7.178-6.5977s2.987-6.5531 7.178-6.5531c4.146 0 7.177 2.7639 7.177 6.5531s-2.987 6.5977-7.177 6.5977z"/><path d="m199.117 41.2182c7.311 0 12.883-5.2603 12.883-11.9026 0-6.6869-5.572-11.9027-12.883-11.9027s-12.884 5.2158-12.884 11.9027c0 6.6423 5.573 11.9026 12.884 11.9026zm0-4.77c-4.458 0-7.623-2.9868-7.623-7.1326 0-4.1459 3.165-7.1327 7.623-7.1327s7.667 2.9868 7.667 7.1327c0 4.1458-3.209 7.1326-7.667 7.1326z"/></g><path clip-rule="evenodd" d="m34.0927 7.28211.0023-.00006.0648-.04173c-8.3697-14.27561-19.3138-3.03631-19.3138-3.03631l.0035.00624c-.007.00125-.0141.0025-.0212.00375-.0004.00008.0005-.00008 0 0l.0257.00407.0076.01345-.0019.00049c6.2933 11.03249 18.2537 3.67927 19.233 3.0501zm-15.5814 3.71399c-.0001-.0001.0002.0001 0 0 .9613.4932 1.9668.8301 2.9839 1.0459 1.0912.2315 2.1962.3239 3.2762.3207 1.2124 1.1135 2.2217 2.4215 3.1695 3.7645.393.561.7475 1.148 1.0609 1.757.7248 1.3955 1.2579 2.872 1.7972 4.3659.1582.4382.3169.8779.4812 1.3174.0514.188.1051.3762.1612.5644l.0024-.0006c.833 2.8568 2.0493 5.9085 3.6791 8.4281-.0001-.0001.0001.0001 0 0 .5391.8275 1.1418 1.6121 1.8048 2.3443.1305.1412.2639.281.3976.4209.6242.654 1.2531 1.3128 1.6094 2.1367.4437 1.0267.4097 2.2077.1428 3.2943-.7439 3.0261-2.7703 4.734-5.2763 5.6507-1.7355.6348-3.7012.8902-5.6302.941l.002-.0053c-1.7676.0353-3.523-.0964-5.0796-.256 0 0-7.5071-.7769-13.87034-5.4285l-.205-.1534c-.74275-.5534-1.45129-1.1513-2.12182-1.7904-1.78356-1.7021-3.37054-3.6326-4.5841-5.752l.02401-.0241c-.14352-.2583-.28112-.5192-.41279-.7827-1.174033-2.3494-1.8895451-4.907-1.92194358-7.6254-.00091852-.0759-.00138964-.1518-.001415-.2277-.00171576-4.489 1.55599858-9.062 4.47338858-12.3926l-.00319-.0084c1.60619-1.7592 3.6138-3.14117 5.9904-3.92797 1.49-.49778 3.0541-.73678 4.6247-.70664.9557 1.122 2.1197 2.04831 3.426 2.72991z" fill="url(#a)" fill-rule="evenodd"/></svg>

<svg width="212" height="50" viewBox="0 0 212 50" fill="none" xmlns="http://www.w3.org/2000/svg">
<path d="M84.8619 33.3723L71.6665 9.38867H67.1194V40.5941H72.4689V21.113L83.3462 40.5941H86.021L97.0766 20.8901V40.5941H102.426V9.38867H97.9682L84.8619 33.3723Z" fill="#E5E3EC"/>
<path d="M117.652 17.4129C111.767 17.4129 108.112 20.4889 107.22 24.7685H112.48C113.238 23.2082 114.709 22.0492 117.696 22.0492C121.263 22.0492 123.135 23.9215 123.135 26.6408V26.9083H116.359C109.494 26.9083 106.016 30.0734 106.016 34.2193C106.016 38.0531 109.271 41.2182 115.155 41.2182C119.658 41.2182 122.199 39.3013 123.313 38.0531H123.536L124.428 40.5941H128.395V27.1312C128.395 21.3805 124.561 17.4129 117.652 17.4129ZM116.002 36.8495C112.57 36.8495 111.232 35.5121 111.232 33.8181C111.232 32.0349 112.659 30.6975 116.537 30.6975H123.135V31.7674C123.135 34.4868 120.772 36.8495 116.002 36.8495Z" fill="#E5E3EC"/>
<path d="M137.626 40.5941V28.9589C137.626 24.9914 140.256 22.2721 144.269 22.2721C148.191 22.2721 150.822 24.9914 150.822 28.9589V40.5941H156.037V28.1565C156.037 21.648 151.624 17.4129 145.294 17.4129C141.014 17.4129 138.473 19.3298 137.492 20.5335H137.27L136.333 18.037H132.41V40.5941H137.626Z" fill="#E5E3EC"/>
<path d="M171.224 49.0642C178.936 49.0642 183.483 44.8737 183.483 38.4543V18.037H179.516L178.58 20.5335H178.357C177.42 19.5527 174.879 17.4129 170.377 17.4129C163.512 17.4129 158.608 22.2721 158.608 28.5577C158.608 34.888 163.467 39.8363 170.422 39.8363C174.567 39.8363 177.376 37.7856 178 36.8495H178.223V38.588C178.223 42.3327 175.504 44.4279 171.224 44.4279C167.97 44.4279 165.964 43.4918 165.117 41.9761H159.723C160.391 44.8737 163.646 49.0642 171.224 49.0642ZM171.046 35.2C166.855 35.2 163.868 32.3915 163.868 28.6023C163.868 24.8131 166.855 22.0492 171.046 22.0492C175.192 22.0492 178.223 24.8131 178.223 28.6023C178.223 32.3915 175.236 35.2 171.046 35.2Z" fill="#E5E3EC"/>
<path d="M199.117 41.2182C206.428 41.2182 212 35.9579 212 29.3156C212 22.6287 206.428 17.4129 199.117 17.4129C191.806 17.4129 186.233 22.6287 186.233 29.3156C186.233 35.9579 191.806 41.2182 199.117 41.2182ZM199.117 36.4482C194.659 36.4482 191.494 33.4614 191.494 29.3156C191.494 25.1697 194.659 22.1829 199.117 22.1829C203.575 22.1829 206.784 25.1697 206.784 29.3156C206.784 33.4614 203.575 36.4482 199.117 36.4482Z" fill="#E5E3EC"/>
<path fill-rule="evenodd" clip-rule="evenodd" d="M34.0927 7.28211L34.095 7.28205L34.1598 7.24032C25.7901 -7.03529 14.846 4.20401 14.846 4.20401L14.8495 4.21025C14.8425 4.2115 14.8354 4.21275 14.8283 4.214C14.8279 4.21408 14.8288 4.21392 14.8283 4.214L14.854 4.21807L14.8616 4.23152L14.8597 4.23201C21.153 15.2645 33.1134 7.91128 34.0927 7.28211ZM18.5113 10.9961C18.5112 10.996 18.5115 10.9962 18.5113 10.9961C19.4726 11.4893 20.4781 11.8262 21.4952 12.042C22.5864 12.2735 23.6914 12.3659 24.7714 12.3627C25.9838 13.4762 26.9931 14.7842 27.9409 16.1272C28.3339 16.6882 28.6884 17.2752 29.0018 17.8842C29.7266 19.2797 30.2597 20.7562 30.799 22.2501C30.9572 22.6883 31.1159 23.128 31.2802 23.5675C31.3316 23.7555 31.3853 23.9437 31.4414 24.1319L31.4438 24.1313C32.2768 26.9881 33.4931 30.0398 35.1229 32.5594C35.1228 32.5593 35.123 32.5595 35.1229 32.5594C35.662 33.3869 36.2647 34.1715 36.9277 34.9037C37.0582 35.0449 37.1916 35.1847 37.3253 35.3246C37.9495 35.9786 38.5784 36.6374 38.9347 37.4613C39.3784 38.488 39.3444 39.669 39.0775 40.7556C38.3336 43.7817 36.3072 45.4896 33.8012 46.4063C32.0657 47.0411 30.1 47.2965 28.171 47.3473L28.173 47.342C26.4054 47.3773 24.65 47.2456 23.0934 47.086C23.0934 47.086 15.5863 46.3091 9.22306 41.6575L9.01806 41.5041C8.27531 40.9507 7.56677 40.3528 6.89624 39.7137C5.11268 38.0116 3.5257 36.0811 2.31214 33.9617L2.33615 33.9376C2.19263 33.6793 2.05503 33.4184 1.92336 33.1549C0.749327 30.8055 0.0338149 28.2479 0.00141642 25.5295C0.000497903 25.4536 2.67796e-05 25.3777 1.41584e-06 25.3018C-0.00171434 20.8128 1.556 16.2398 4.47339 12.9092L4.4702 12.9008C6.07639 11.1416 8.084 9.75963 10.4606 8.97283C11.9506 8.47505 13.5147 8.23605 15.0853 8.26619C16.041 9.38819 17.205 10.3145 18.5113 10.9961Z" fill="url(#paint0_linear_4679_1189)"/>
<defs>
<linearGradient id="paint0_linear_4679_1189" x1="-2.50526e-10" y1="28.3881" x2="39.2742" y2="28.3881" gradientUnits="userSpaceOnUse">
<stop stop-color="#F84638"/>
<stop offset="0.5" stop-color="#FF9C24"/>
<stop offset="1" stop-color="#A6CD03"/>
</linearGradient>
</defs>
</svg>
